X: 35668
T: Sailor's Rest, The
R: hornpipe
M: 4/4
K: Gmajor
d2|:(3gag (3ded (3BdB G>B|d>g g>f g>f e>d|(3efg d>B c>B A>G|c2 A2 A2 d2|
(3gag (3ded (3BdB G>B|d>g g>f g>f e>d|(3efg d>B c>A F>G|1 G2 B2 G2 d2:|2 G2 B2 G2 A>G||
|:F>G A>B c>e d>c|B>G B>d g>b a>g|(3efg d>B c>B A>G|c2 A2 A2 d2|
F>G A>B c>e d>c|B>G B>d g>b a>g|(3efg d>B c>A F>G|1 G2 B2 G2 A>G:|2 G2 B2 G4||

